packages/ui-icons/svg/Line/equella.svg

<svg viewBox="0 0 1920 1920" version="1.1" xmlns="http://www.w3.org/2000/svg">
    <path d="M880.72175,1814.60102 C882.291049,1806.14978 891.10327,1799.26806 900.398352,1799.26806 L974.879725,1799.26806 C984.054091,1799.26806 990.089859,1806.14978 988.399844,1814.60102 L973.914002,1885.10847 C972.223987,1893.55971 963.411766,1900.56216 954.116684,1900.56216 L879.514596,1900.56216 C870.460945,1900.56216 864.425177,1893.55971 866.235907,1885.10847 L880.72175,1814.60102 Z M161.620395,1834.15959 C163.31041,1825.70836 172.12263,1818.7059 181.296997,1818.7059 L255.899085,1818.7059 C265.073452,1818.7059 271.109219,1825.70836 269.177774,1834.15959 L254.933362,1904.66704 C253.122632,1913.11828 244.310411,1920 235.136044,1920 L160.654672,1920 C151.480305,1920 145.444537,1913.11828 147.134552,1904.66704 L161.620395,1834.15959 Z M133.010856,591.827957 C134.700871,583.376721 143.513092,576.374269 152.687458,576.374269 L227.168831,576.374269 C236.343198,576.374269 242.378965,583.376721 240.44752,591.827957 L226.203108,662.335408 C224.271663,670.786644 215.338726,677.668364 206.285075,677.668364 L131.803703,677.668364 C122.629336,677.668364 116.593568,670.786644 118.283583,662.335408 L132.769425,591.827957 L133.010856,591.827957 Z M632.048123,15.332956 C633.858854,6.88172043 642.671074,0 651.845441,0 L726.326814,0 C735.621896,0 741.657663,7.00245237 739.967649,15.332956 L725.481806,85.9611394 C723.791791,94.412375 714.858855,101.414827 705.684488,101.414827 L631.082401,101.414827 C621.908034,101.414827 615.872266,94.1709111 617.803712,85.9611394 L632.048123,15.332956 Z M1416.21505,15.332956 C1417.90507,6.88172043 1426.71729,0 1435.89166,0 L1510.37303,0 C1519.5474,0 1525.58316,7.00245237 1523.65172,15.332956 L1509.40731,85.9611394 C1507.59658,94.412375 1498.78435,101.294095 1489.48927,101.294095 L1415.0079,101.294095 C1405.83353,101.294095 1399.79777,94.0501792 1401.48778,85.8404075 L1415.97362,15.2122241 L1416.21505,15.332956 L1416.21505,15.332956 Z M932.629351,397.208074 C934.560797,388.515374 943.493733,381.512922 952.547384,381.512922 L1027.02876,381.512922 C1036.20312,381.512922 1042.23889,388.756838 1040.54888,397.208074 L1026.06303,467.594793 C1024.37302,476.046029 1015.5608,482.927749 1006.26572,482.927749 L931.784344,482.927749 C922.609977,482.927749 916.694925,476.046029 918.505655,467.594793 L932.750067,397.087342 L932.629351,397.208074 Z M723.429645,256.796831 C725.240376,248.345595 734.294027,241.584607 743.106248,241.584607 L875.651705,241.584607 C884.826072,241.584607 890.741124,248.587059 888.930394,256.917563 L863.8216,381.99585 C862.01087,390.447085 852.957219,397.208074 844.024282,397.208074 L711.237395,397.208074 C702.183743,397.208074 696.147976,390.326354 697.958706,381.99585 L723.30893,256.796831 L723.429645,256.796831 Z M383.374497,1479.56989 C385.185227,1471.11866 394.238879,1464.35767 403.0511,1464.35767 L535.475841,1464.35767 C544.770924,1464.35767 550.685976,1471.11866 548.995961,1479.44916 L523.404306,1604.64818 C521.714291,1613.09942 512.781355,1619.8604 503.848419,1619.8604 L371.061531,1619.8604 C362.128595,1619.8604 356.092828,1612.97868 357.782842,1604.64818 L383.374497,1479.44916 L383.374497,1479.56989 Z M918.988516,1608.14941 C920.799247,1599.69817 929.852898,1592.81645 938.665119,1592.81645 L1071.21058,1592.81645 C1080.38494,1592.81645 1086.29999,1599.69817 1084.48926,1608.02867 L1059.13904,1733.22769 C1057.32831,1741.67893 1048.27466,1748.31919 1039.34172,1748.31919 L906.796266,1748.31919 C897.742614,1748.31919 891.706847,1741.43746 893.517577,1733.22769 L918.867801,1607.90794 L918.988516,1608.14941 Z M1267.9766,1510.35654 C1273.16736,1485.00283 1299.60402,1464.4784 1326.88569,1464.4784 L1534.15395,1464.4784 C1561.55634,1464.4784 1579.54293,1485.00283 1574.35217,1510.35654 L1534.27467,1706.4252 C1529.08391,1731.77891 1502.52653,1752.30334 1475.12415,1752.30334 L1268.21803,1752.30334 C1240.81565,1752.30334 1222.82906,1732.02037 1228.14053,1706.4252 L1268.21803,1510.35654 L1267.9766,1510.35654 Z M303.702365,1043.12394 C308.893125,1017.77023 335.329787,997.004339 362.611457,997.004339 L569.879717,997.004339 C597.282102,997.004339 615.268689,1017.52877 610.077929,1042.88248 L570.000432,1239.19261 C564.809672,1264.54631 538.252294,1285.07074 510.849909,1285.07074 L303.702365,1285.07074 C276.420695,1285.07074 258.313392,1264.54631 263.624867,1239.19261 L303.702365,1043.12394 Z M370.095808,637.947557 C375.165853,612.59385 401.4818,592.069421 429.0049,592.069421 L636.152445,592.069421 C663.55483,592.069421 681.541418,612.59385 676.350658,637.947557 L636.273161,834.257687 C631.082401,859.611394 604.525023,880.135823 577.122638,880.135823 L370.095808,880.135823 C342.693423,880.135823 324.58612,859.611394 329.897596,834.257687 L369.975093,637.947557 L370.095808,637.947557 Z M1496.61148,240.860215 C1501.80224,215.506508 1528.35962,194.982079 1555.762,194.982079 L1762.90955,194.982079 C1790.31193,194.982079 1808.29852,215.506508 1803.10776,240.860215 L1763.15098,437.049613 C1757.96022,462.40332 1731.52355,482.927749 1704.24188,482.927749 L1496.97362,482.927749 C1469.57124,482.927749 1451.58465,462.40332 1456.77541,437.049613 L1496.85291,240.860215 L1496.61148,240.860215 Z M855.612956,699.037917 C867.684492,639.879268 929.490752,591.948689 993.469889,591.948689 L1623.12117,591.948689 C1687.1003,591.948689 1729.35068,639.879268 1717.27914,699.158649 L1595.35664,1294.97076 C1583.2851,1354.12941 1521.47884,1402.18072 1457.4997,1402.18072 L827.848425,1402.18072 C763.869288,1402.18072 721.618915,1354.25014 733.69045,1294.97076 L855.612956,699.279381 L855.612956,699.037917 Z" stroke="none" stroke-width="1" fill-rule="evenodd"/>
</svg>

<svg viewBox="0 0 1920 1920" xmlns="http://www.w3.org/2000/svg">
    <path d="M880.722 1814.601c1.569-8.451 10.381-15.333 19.676-15.333h74.482c9.174 0 15.21 6.882 13.52 15.333l-14.486 70.507c-1.69 8.452-10.502 15.454-19.797 15.454h-74.602c-9.054 0-15.09-7.002-13.28-15.454l14.487-70.507ZM161.62 1834.16c1.69-8.452 10.503-15.454 19.677-15.454h74.602c9.174 0 15.21 7.002 13.279 15.454l-14.245 70.507c-1.81 8.451-10.623 15.333-19.797 15.333h-74.481c-9.175 0-15.21-6.882-13.52-15.333l14.485-70.507ZM133.01 591.828c1.69-8.451 10.503-15.454 19.677-15.454h74.482c9.174 0 15.21 7.003 13.279 15.454l-14.245 70.507c-1.931 8.452-10.864 15.333-19.918 15.333h-74.481c-9.175 0-15.21-6.881-13.52-15.333l14.485-70.507h.242ZM632.049 15.333C633.858 6.882 642.671 0 651.845 0h74.482c9.295 0 15.33 7.002 13.64 15.333l-14.485 70.628c-1.69 8.451-10.623 15.454-19.798 15.454h-74.602c-9.174 0-15.21-7.244-13.278-15.454l14.244-70.628Zm784.167 0C1417.905 6.882 1426.717 0 1435.892 0h74.481c9.174 0 15.21 7.002 13.279 15.333l-14.245 70.628c-1.81 8.451-10.623 15.333-19.918 15.333h-74.481c-9.174 0-15.21-7.244-13.52-15.454l14.486-70.628.241.121ZM932.63 397.208c1.932-8.693 10.865-15.695 19.918-15.695h74.482c9.174 0 15.21 7.244 13.52 15.695l-14.486 70.387c-1.69 8.451-10.502 15.333-19.797 15.333h-74.482c-9.174 0-15.09-6.882-13.278-15.333l14.244-70.508-.12.121Zm-209.2-140.411c1.811-8.451 10.865-15.212 19.677-15.212h132.546c9.174 0 15.09 7.002 13.278 15.333l-25.108 125.078c-1.811 8.451-10.865 15.212-19.798 15.212H711.237c-9.053 0-15.089-6.882-13.278-15.212l25.35-125.2h.12ZM383.375 1479.57c1.811-8.451 10.865-15.212 19.677-15.212h132.425c9.295 0 15.21 6.76 13.52 15.091l-25.592 125.2c-1.69 8.45-10.623 15.211-19.556 15.211H371.062c-8.933 0-14.97-6.881-13.28-15.212l25.592-125.199v.12Zm535.615 128.58c1.81-8.452 10.864-15.334 19.676-15.334h132.546c9.174 0 15.089 6.882 13.278 15.213l-25.35 125.199c-1.81 8.45-10.864 15.091-19.797 15.091H906.796c-9.053 0-15.09-6.882-13.278-15.091l25.35-125.32.12.241Zm348.988-97.793c5.19-25.354 31.627-45.879 58.909-45.879h207.268c27.402 0 45.389 20.525 40.198 45.879l-40.077 196.068c-5.191 25.354-31.748 45.878-59.15 45.878h-206.907c-27.402 0-45.389-20.283-40.077-45.878l40.077-196.068h-.241Zm-964.275-467.233c5.191-25.354 31.628-46.12 58.91-46.12H569.88c27.402 0 45.389 20.525 40.198 45.878L570 1239.192c-5.19 25.354-31.748 45.879-59.15 45.879H303.702c-27.281 0-45.389-20.525-40.077-45.878l40.077-196.07Zm66.394-405.176c5.07-25.354 31.386-45.879 58.909-45.879h207.147c27.403 0 45.39 20.525 40.199 45.879l-40.078 196.31c-5.19 25.353-31.748 45.878-59.15 45.878H370.096c-27.403 0-45.51-20.525-40.198-45.878l40.077-196.31h.12ZM1496.61 240.86c5.191-25.353 31.749-45.878 59.151-45.878h207.148c27.402 0 45.389 20.525 40.198 45.878l-39.957 196.19c-5.19 25.353-31.627 45.878-58.91 45.878h-207.267c-27.403 0-45.39-20.525-40.199-45.878l40.078-196.19h-.242ZM855.613 699.038c12.071-59.159 73.878-107.09 137.857-107.09h629.651c63.98 0 106.23 47.931 94.158 107.21l-121.922 595.813c-12.072 59.158-73.878 107.21-137.857 107.21H827.848c-63.979 0-106.23-47.93-94.158-107.21l121.923-595.692v-.241Z" fill-rule="evenodd"/>
</svg>
